src/assets/img/svg_sources/icon-service-workshops.svg

<svg width="42" height="42" viewBox="0 0 42 42" fill="none" xmlns="http://www.w3.org/2000/svg"><path fill-rule="evenodd" clip-rule="evenodd" d="M0 0h42v27a2 2 0 0 1-2 2H2a2 2 0 0 1-2-2V0zm2 2h38v4H2V2zm38 6v19H2V8h38z" fill="#C7A21E"/><path d="M22 27h-2v13h-5v2h12v-2h-5V27z" fill="#C7A21E"/></svg>

<svg width="42" height="42" viewBox="0 0 42 42" fill="none" xmlns="http://www.w3.org/2000/svg">
<path fill-rule="evenodd" clip-rule="evenodd" d="M0 0H42V27C42 28.1046 41.1046 29 40 29H2C0.89543 29 0 28.1046 0 27V0ZM2 2H40V6H2V2ZM40 8V27H2L2 8H40Z" fill="#C7A21E"/>
<path d="M22 27H20V40H15V42H27V40H22V27Z" fill="#C7A21E"/>
</svg>
